apps/www/public/images/logos/publicity/archive/chatbase.svg

<svg width="152" height="40" viewBox="0 0 152 40" fill="none" xmlns="http://www.w3.org/2000/svg">
<path fill-rule="evenodd" clip-rule="evenodd" d="M10.9776 0.520279C4.91161 0.520279 -0.00585938 5.40031 -0.00585938 11.4201V28.6091C-0.00585938 34.6289 4.91161 39.5089 10.9776 39.5089H30.2652C36.3312 39.5089 41.2487 34.6289 41.2487 28.6091V11.4201C41.2487 5.40031 36.3312 0.520279 30.2652 0.520279H10.9776ZM20.5832 29.156C18.664 29.156 17.0203 28.76 15.6521 27.9774C14.2839 27.1948 13.2292 26.101 12.4976 24.7055C11.766 23.3101 11.3955 21.6883 11.3955 19.8496C11.3955 18.011 11.766 16.3798 12.5071 14.9749C13.2482 13.5794 14.3029 12.4856 15.6711 11.703C17.0393 10.9204 18.6735 10.5244 20.5832 10.5244C22.265 10.5244 23.7282 10.8261 24.9823 11.4296C26.2365 12.033 27.2151 12.8816 27.9182 13.9848C28.6213 15.088 29.0014 16.3798 29.0394 17.8601H23.6236C23.5096 16.9361 23.1961 16.2101 22.683 15.682C22.1699 15.154 21.4954 14.89 20.6687 14.89C19.9942 14.89 19.4051 15.0786 18.9015 15.4463C18.3979 15.8235 17.9989 16.3704 17.7233 17.0964C17.4478 17.8224 17.3053 18.7182 17.3053 19.7836C17.3053 20.8491 17.4478 21.7449 17.7233 22.4803C17.9989 23.2158 18.3979 23.7626 18.9015 24.1398C19.4051 24.5075 19.9942 24.6961 20.6687 24.6961C21.2103 24.6961 21.6854 24.583 22.0939 24.3567C22.512 24.1304 22.854 23.7909 23.1201 23.3478C23.3861 22.9046 23.5571 22.3672 23.6331 21.7354H29.0489C28.9919 23.2252 28.6213 24.5264 27.9277 25.639C27.2341 26.7516 26.265 27.6191 25.0298 28.232C23.7852 28.8448 22.3125 29.156 20.6022 29.156H20.5832Z" fill="#B4B4B4"/>
<path d="M67.5295 16.9738H66.0378C65.9238 16.4269 65.7242 15.9178 65.4392 15.4463C65.1542 14.9749 64.7931 14.5694 64.356 14.2205C63.919 13.8717 63.4344 13.5982 62.8834 13.4002C62.3323 13.2022 61.7432 13.1079 61.1066 13.1079C60.0805 13.1079 59.1493 13.3719 58.3132 13.9C57.4771 14.428 56.8025 15.2011 56.299 16.2289C55.7954 17.2567 55.5484 18.5013 55.5484 19.9816C55.5484 21.462 55.7954 22.7254 56.299 23.7532C56.8025 24.7715 57.4771 25.5447 58.3132 26.0727C59.1589 26.6007 60.09 26.8647 61.1066 26.8647C61.7432 26.8647 62.3418 26.7705 62.8834 26.5725C63.4344 26.3744 63.919 26.1104 64.356 25.7616C64.7931 25.4127 65.1447 25.0072 65.4392 24.5358C65.7242 24.0644 65.9238 23.5552 66.0378 23.0083H67.5295C67.3965 23.7438 67.1494 24.4321 66.7884 25.0733C66.4273 25.705 65.9713 26.2613 65.4107 26.7422C64.8501 27.2231 64.2135 27.5908 63.4914 27.8548C62.7693 28.1188 61.9712 28.2508 61.1066 28.2508C59.7479 28.2508 58.5413 27.9114 57.4866 27.2325C56.432 26.5536 55.6054 25.6013 55.0068 24.3661C54.4082 23.1309 54.1137 21.6694 54.1137 19.9911C54.1137 18.3127 54.4082 16.8512 55.0068 15.616C55.6054 14.3808 56.432 13.4285 57.4866 12.7496C58.5413 12.0707 59.7479 11.7313 61.1066 11.7313C61.9712 11.7313 62.7693 11.8633 63.4914 12.1273C64.2135 12.3913 64.8501 12.7591 65.4107 13.2399C65.9618 13.7208 66.4273 14.2771 66.7884 14.9089C67.1494 15.5406 67.3965 16.2289 67.5295 16.9738Z" fill="#B4B4B4"/>
<path d="M72.1277 20.4908V28.0245H70.7215V11.9482H72.1277V17.8601H72.2512C72.5363 17.2378 72.9733 16.7381 73.5719 16.3703C74.1705 16.0026 74.9306 15.814 75.8427 15.814C76.6693 15.814 77.3914 15.9838 78.009 16.3138C78.6361 16.6532 79.1207 17.1435 79.4627 17.7941C79.8142 18.4447 79.9853 19.2556 79.9853 20.2079V28.0151H78.5696V20.2928C78.5696 19.3027 78.294 18.5107 77.7335 17.945C77.1824 17.3698 76.4223 17.0869 75.4817 17.0869C74.8356 17.0869 74.256 17.2189 73.7524 17.4924C73.2489 17.7658 72.8498 18.1524 72.5553 18.671C72.2607 19.1802 72.1182 19.7836 72.1182 20.4908H72.1277Z" fill="#B4B4B4"/>
<path fill-rule="evenodd" clip-rule="evenodd" d="M85.1071 27.8737C85.7056 28.1565 86.3802 28.298 87.1118 28.298V28.2885C87.7864 28.2885 88.3755 28.1754 88.8791 27.9679C89.3826 27.7605 89.8007 27.4871 90.1332 27.1476C90.4658 26.8082 90.7128 26.4687 90.8838 26.1104H90.9694V28.0151H92.3755V19.8308C92.3755 19.0199 92.2425 18.3599 91.9765 17.8318C91.701 17.3038 91.3589 16.8889 90.9218 16.5966C90.4848 16.3043 90.0192 16.0969 89.5157 15.9743C89.0121 15.8518 88.5275 15.7952 88.062 15.7952C87.4444 15.7952 86.8363 15.88 86.2377 16.0592C85.6391 16.2383 85.0976 16.5212 84.613 16.9172C84.1284 17.3132 83.7484 17.8413 83.4728 18.5013L84.8125 18.9822C85.031 18.4636 85.4206 18.0204 85.9717 17.6338C86.5228 17.2472 87.2353 17.0587 88.1095 17.0587C89.0406 17.0587 89.7437 17.2944 90.2378 17.7658C90.7318 18.2373 90.9789 18.8879 90.9789 19.7082V19.9911C90.9789 20.2928 90.8553 20.5191 90.6083 20.6511C90.3613 20.7925 90.0002 20.8868 89.5252 20.9528C89.2537 20.9851 88.9513 21.0236 88.6142 21.0665C88.3614 21.0987 88.0891 21.1333 87.7959 21.1697C87.1118 21.2451 86.4847 21.3677 85.9147 21.5186C85.3446 21.6694 84.8505 21.8769 84.4325 22.1409C84.0144 22.4049 83.6914 22.7443 83.4633 23.1498C83.2353 23.5552 83.1213 24.0644 83.1213 24.6584C83.1213 25.4316 83.3018 26.0916 83.6629 26.629C84.0144 27.1759 84.499 27.5908 85.1071 27.8737ZM89.2496 26.5253C88.6985 26.8553 88.0525 27.0156 87.3019 27.0156L87.3114 27.0251C86.5133 27.0251 85.8482 26.8176 85.3256 26.4216C84.803 26.0256 84.537 25.4598 84.537 24.7244C84.537 24.2341 84.67 23.8381 84.9265 23.5269C85.1831 23.2158 85.5536 22.9706 86.0382 22.7915C86.5228 22.6123 87.1118 22.4803 87.7959 22.3954C88.0525 22.3577 88.3375 22.32 88.651 22.2823C88.9646 22.2446 89.2876 22.188 89.6012 22.1314C89.9147 22.0749 90.1997 21.9994 90.4468 21.924C90.6843 21.8486 90.8648 21.7637 90.9694 21.66V23.4043C90.9694 24.0644 90.8268 24.6678 90.5228 25.2147C90.2188 25.7616 89.8007 26.1953 89.2496 26.5253Z" fill="#B4B4B4"/>
<path d="M100.898 15.9649V17.1812H98.3233V24.8752C98.3233 25.375 98.4088 25.771 98.5799 26.0539C98.7509 26.3367 98.9789 26.5442 99.264 26.6573C99.5395 26.7705 99.8435 26.8365 100.157 26.8365C100.338 26.8365 100.499 26.827 100.632 26.7988C100.676 26.7893 100.719 26.781 100.759 26.7729C100.84 26.7569 100.914 26.7422 100.984 26.7233L101.288 27.9868C101.155 28.0434 100.984 28.0905 100.784 28.1282C100.585 28.1754 100.338 28.1942 100.043 28.1942C99.53 28.1942 99.0264 28.0811 98.5514 27.8548C98.0763 27.6285 97.6772 27.2985 97.3732 26.8459C97.0692 26.4027 96.9171 25.8464 96.9171 25.1864V17.1812H95.1024V15.9649H96.9171V13.0796H98.3233V15.9649H100.898Z" fill="#B4B4B4"/>
<path fill-rule="evenodd" clip-rule="evenodd" d="M104.642 11.9482V28.0245L104.651 28.0151H106.019V25.7804H106.19C106.352 26.1387 106.589 26.5159 106.884 26.9025C107.178 27.2891 107.578 27.6096 108.072 27.8736C108.566 28.1377 109.174 28.2697 109.915 28.2697C110.903 28.2697 111.777 28.0151 112.528 27.4871C113.278 26.9685 113.867 26.233 114.285 25.2995C114.704 24.3661 114.913 23.2723 114.913 22.0277C114.913 20.7831 114.694 19.6988 114.276 18.7653C113.848 17.8318 113.259 17.1058 112.509 16.5872C111.758 16.0686 110.884 15.8046 109.886 15.8046C109.145 15.8046 108.528 15.9366 108.043 16.1912C107.559 16.4458 107.16 16.7758 106.865 17.1529C106.57 17.5301 106.342 17.9073 106.181 18.2656H106.057V11.9482H104.642ZM106.475 24.5829C106.181 23.8381 106.038 22.9706 106.038 21.9994C106.038 21.0377 106.181 20.1891 106.475 19.4442C106.77 18.6993 107.188 18.1241 107.739 17.6998C108.29 17.2755 108.946 17.0681 109.753 17.0681C110.561 17.0681 111.245 17.2849 111.806 17.7187C112.366 18.1618 112.794 18.7464 113.079 19.4913C113.364 20.2362 113.506 21.066 113.506 21.9994C113.506 22.9329 113.354 23.7815 113.069 24.5358C112.784 25.2901 112.357 25.8841 111.796 26.3273C111.236 26.7705 110.532 26.9873 109.744 26.9873C108.955 26.9873 108.29 26.7705 107.739 26.3462C107.188 25.9219 106.77 25.3373 106.475 24.5829Z" fill="#B4B4B4"/>
<path fill-rule="evenodd" clip-rule="evenodd" d="M121.411 28.298C120.68 28.298 120.005 28.1565 119.407 27.8737C118.799 27.5908 118.314 27.1759 117.962 26.629C117.601 26.0916 117.421 25.4316 117.421 24.6584C117.421 24.0644 117.535 23.5552 117.763 23.1498C117.991 22.7443 118.314 22.4049 118.732 22.1409C119.15 21.8769 119.644 21.6694 120.214 21.5186C120.784 21.3677 121.411 21.2451 122.096 21.1697C122.389 21.1333 122.661 21.0987 122.914 21.0665L122.916 21.0663L122.917 21.066C123.253 21.0233 123.554 20.985 123.825 20.9528C124.3 20.8868 124.661 20.7925 124.908 20.6511C125.155 20.5191 125.278 20.2928 125.278 19.9911V19.7082C125.278 18.8879 125.031 18.2373 124.537 17.7658C124.043 17.2944 123.34 17.0587 122.409 17.0587C121.535 17.0587 120.822 17.2472 120.271 17.6338C119.72 18.0204 119.331 18.4636 119.112 18.9822L117.772 18.5013C118.048 17.8413 118.428 17.3132 118.913 16.9172C119.397 16.5212 119.939 16.2383 120.537 16.0592C121.136 15.88 121.744 15.7952 122.362 15.7952C122.827 15.7952 123.312 15.8518 123.815 15.9743C124.319 16.0969 124.784 16.3043 125.221 16.5966C125.658 16.8889 126.001 17.3038 126.276 17.8318C126.542 18.3599 126.675 19.0199 126.675 19.8308V28.0151H125.269V26.1104H125.183C125.012 26.4687 124.765 26.8082 124.433 27.1476C124.1 27.4871 123.682 27.7605 123.179 27.9679C122.675 28.1754 122.086 28.2885 121.411 28.2885V28.298ZM121.601 27.0156C122.352 27.0156 122.998 26.8553 123.549 26.5253C124.1 26.1953 124.518 25.7616 124.822 25.2147C125.126 24.6678 125.269 24.0644 125.269 23.4043V21.66C125.164 21.7637 124.984 21.8486 124.746 21.924C124.499 21.9994 124.214 22.0749 123.901 22.1314C123.587 22.188 123.264 22.2446 122.951 22.2823C122.637 22.32 122.352 22.3577 122.096 22.3954C121.411 22.4803 120.822 22.6123 120.338 22.7915C119.853 22.9706 119.483 23.2158 119.226 23.5269C118.97 23.8381 118.837 24.2341 118.837 24.7244C118.837 25.4598 119.103 26.0256 119.625 26.4216C120.148 26.8176 120.813 27.0251 121.611 27.0251L121.601 27.0156Z" fill="#B4B4B4"/>
<path d="M137.278 18.9727L138.57 18.6144H138.551C138.257 17.7375 137.772 17.0492 137.107 16.5495C136.442 16.0498 135.549 15.7952 134.437 15.7952C133.62 15.7952 132.889 15.946 132.252 16.2289C131.615 16.5118 131.112 16.9078 130.751 17.417C130.39 17.9167 130.209 18.5013 130.209 19.1707C130.209 19.9816 130.466 20.6511 130.969 21.198C131.473 21.7448 132.252 22.1409 133.307 22.3954L135.292 22.8669C135.957 23.0272 136.461 23.2723 136.784 23.6023C137.117 23.9324 137.278 24.3378 137.278 24.8281C137.278 25.4504 137.003 25.9784 136.442 26.3933C135.881 26.8082 135.131 27.0156 134.2 27.0156C133.364 27.0156 132.699 26.8365 132.185 26.4687C131.672 26.101 131.33 25.5636 131.159 24.847L129.81 25.177C130.029 26.1764 130.523 26.9402 131.292 27.4776C132.062 28.0151 133.041 28.2791 134.228 28.2791C135.121 28.2791 135.91 28.1282 136.585 27.8265C137.259 27.5248 137.791 27.1099 138.171 26.5819C138.551 26.0539 138.741 25.4504 138.741 24.7715C138.741 23.9701 138.494 23.3006 137.981 22.7632C137.478 22.2257 136.708 21.8391 135.691 21.594L133.858 21.1508C133.107 20.9622 132.547 20.7077 132.185 20.3871C131.824 20.0665 131.644 19.6422 131.644 19.1236C131.644 18.5107 131.91 18.011 132.433 17.6244C132.955 17.2378 133.63 17.0398 134.456 17.0398C134.998 17.0398 135.463 17.1247 135.834 17.2944C136.205 17.4641 136.499 17.6998 136.737 17.9921C136.974 18.2844 137.155 18.6144 137.278 18.9727Z" fill="#B4B4B4"/>
<path fill-rule="evenodd" clip-rule="evenodd" d="M146.751 28.2791C145.62 28.2791 144.632 28.0151 143.806 27.4871C142.979 26.959 142.343 26.233 141.886 25.2996C141.43 24.3661 141.212 23.2912 141.212 22.0654C141.212 20.8397 141.44 19.7742 141.886 18.8313C142.333 17.8884 142.96 17.1435 143.758 16.6061C144.556 16.0686 145.478 15.8046 146.533 15.8046C147.188 15.8046 147.825 15.9272 148.442 16.1629C149.06 16.3986 149.601 16.7664 150.096 17.2567C150.59 17.747 150.97 18.3599 151.255 19.1047C151.54 19.8496 151.682 20.7171 151.682 21.7354V22.4237H142.639C142.658 23.3138 142.828 24.088 143.141 24.7621C143.473 25.4787 143.948 26.0256 144.566 26.4216C145.183 26.8176 145.915 27.0062 146.761 27.0062C147.331 27.0062 147.844 26.9213 148.271 26.7422C148.708 26.563 149.069 26.3273 149.373 26.0256C149.668 25.7239 149.896 25.3938 150.048 25.0355L151.388 25.4693C151.207 25.9784 150.903 26.4499 150.485 26.8742C150.067 27.2985 149.544 27.6474 148.917 27.9114C148.29 28.166 147.578 28.298 146.761 28.298L146.751 28.2791ZM143.141 19.3216C142.855 19.8971 142.695 20.5214 142.65 21.1885H150.248C150.248 20.4154 150.086 19.7176 149.773 19.0953C149.459 18.473 149.022 17.9827 148.471 17.6244C147.92 17.2661 147.274 17.0869 146.542 17.0869C145.772 17.0869 145.098 17.2944 144.509 17.6998C143.92 18.1053 143.464 18.6427 143.141 19.3216Z" fill="#B4B4B4"/>
</svg>

<svg xmlns="http://www.w3.org/2000/svg" width="152" height="40" fill="none" viewBox="0 0 152 40"><path fill="#b4b4b4" fill-rule="evenodd" d="M10.978.52C4.912.52-.006 5.4-.006 11.42v17.19c0 6.019 4.918 10.899 10.984 10.899h19.287c6.066 0 10.984-4.88 10.984-10.9V11.42c0-6.02-4.918-10.9-10.984-10.9zm9.605 28.636c-1.919 0-3.563-.396-4.93-1.179a7.96 7.96 0 0 1-3.155-3.271c-.732-1.396-1.102-3.018-1.102-4.856s.37-3.47 1.111-4.875a8.04 8.04 0 0 1 3.164-3.272c1.368-.783 3.003-1.179 4.912-1.179 1.682 0 3.145.302 4.4.906q1.88.902 2.935 2.555c.703 1.103 1.083 2.395 1.121 3.875h-5.415q-.171-1.386-.941-2.178c-.513-.528-1.188-.792-2.014-.792-.675 0-1.264.189-1.768.556-.503.377-.902.924-1.178 1.65s-.418 1.622-.418 2.688c0 1.065.143 1.96.418 2.696.276.736.675 1.283 1.178 1.66.504.367 1.093.556 1.768.556q.812 0 1.425-.34a2.7 2.7 0 0 0 1.026-1.008q.399-.664.513-1.613h5.416q-.084 2.235-1.121 3.904c-.694 1.113-1.663 1.98-2.898 2.593-1.245.613-2.718.924-4.428.924z" clip-rule="evenodd"/><path fill="#b4b4b4" d="M67.53 16.974h-1.492a4.8 4.8 0 0 0-.599-1.528 4.6 4.6 0 0 0-1.083-1.226 5.1 5.1 0 0 0-1.473-.82 5.2 5.2 0 0 0-1.776-.292 5.12 5.12 0 0 0-2.794.792c-.836.528-1.51 1.301-2.014 2.329s-.75 2.272-.75 3.753c0 1.48.246 2.743.75 3.771q.758 1.528 2.014 2.32a5.17 5.17 0 0 0 2.794.792c.636 0 1.235-.095 1.776-.292a5.1 5.1 0 0 0 1.473-.811 4.8 4.8 0 0 0 1.083-1.226q.428-.707.599-1.528h1.492a6.6 6.6 0 0 1-.742 2.065 6.3 6.3 0 0 1-1.377 1.67c-.56.48-1.198.848-1.92 1.112s-1.52.396-2.384.396q-2.04 0-3.62-1.018c-1.055-.68-1.882-1.632-2.48-2.867s-.893-2.697-.893-4.375.294-3.14.893-4.375c.598-1.235 1.425-2.187 2.48-2.866q1.58-1.02 3.62-1.019c.864 0 1.662.132 2.384.396a6.2 6.2 0 0 1 1.92 1.113 6.5 6.5 0 0 1 1.377 1.669q.542.948.742 2.065M72.128 20.49v7.535h-1.406V11.947h1.406v5.912h.123a3.35 3.35 0 0 1 1.32-1.49c.6-.367 1.36-.556 2.272-.556.826 0 1.548.17 2.166.5.627.34 1.112.83 1.454 1.48.351.65.522 1.462.522 2.414v7.807H78.57v-7.722c0-.99-.276-1.782-.836-2.348-.552-.575-1.312-.858-2.252-.858-.646 0-1.226.132-1.73.405-.503.274-.902.66-1.197 1.179-.294.51-.437 1.113-.437 1.82z"/><path fill="#b4b4b4" fill-rule="evenodd" d="M85.107 27.874c.599.283 1.273.424 2.005.424v-.01c.674 0 1.264-.113 1.767-.32a3.7 3.7 0 0 0 1.254-.82c.333-.34.58-.68.75-1.038h.086v1.905h1.407v-8.184c0-.811-.133-1.471-.4-2-.275-.527-.617-.942-1.054-1.234a4.4 4.4 0 0 0-1.406-.623 6 6 0 0 0-1.454-.179c-.618 0-1.226.085-1.824.264-.599.18-1.14.462-1.625.858q-.727.594-1.14 1.584l1.34.481c.218-.518.608-.962 1.159-1.348.55-.387 1.263-.575 2.138-.575.93 0 1.634.235 2.128.707.494.471.74 1.122.74 1.942v.283c0 .302-.123.528-.37.66-.247.142-.608.236-1.083.302q-.406.048-.91.114l-.82.103c-.683.075-1.31.198-1.88.349q-.855.226-1.483.622a2.8 2.8 0 0 0-.969 1.009c-.228.405-.342.914-.342 1.508 0 .774.18 1.434.542 1.971.351.547.836.962 1.444 1.245m4.143-1.349c-.552.33-1.198.49-1.948.49l.01.01c-.799 0-1.464-.207-1.986-.603-.523-.396-.789-.962-.789-1.698 0-.49.133-.886.39-1.197q.385-.466 1.111-.736c.485-.179 1.074-.31 1.758-.396q.384-.056.855-.113c.314-.037.637-.094.95-.15.314-.057.599-.133.846-.208.237-.075.418-.16.522-.264v1.744c0 .66-.142 1.264-.446 1.81a3.45 3.45 0 0 1-1.273 1.311" clip-rule="evenodd"/><path fill="#b4b4b4" d="M100.898 15.965v1.216h-2.575v7.694c0 .5.086.896.257 1.179.17.283.399.49.684.603.276.113.58.18.893.18q.273.002.475-.038l.127-.026a3 3 0 0 0 .225-.05l.304 1.264a2.5 2.5 0 0 1-.504.141 3.3 3.3 0 0 1-.741.066 3.45 3.45 0 0 1-1.492-.34 2.9 2.9 0 0 1-1.178-1.008c-.304-.443-.456-1-.456-1.66v-8.005h-1.815v-1.216h1.815V13.08h1.406v2.885z"/><path fill="#b4b4b4" fill-rule="evenodd" d="M104.642 11.948v16.077l.009-.01h1.368V25.78h.171c.162.359.399.736.694 1.122s.694.708 1.188.972 1.102.396 1.843.396c.988 0 1.862-.255 2.613-.783.75-.518 1.339-1.254 1.757-2.187.419-.934.628-2.028.628-3.272 0-1.245-.219-2.33-.637-3.263q-.642-1.4-1.767-2.178c-.751-.518-1.625-.782-2.623-.782-.741 0-1.358.132-1.843.386a3.6 3.6 0 0 0-1.178.962 5.5 5.5 0 0 0-.684 1.113h-.124v-6.318zm1.833 12.635c-.294-.745-.437-1.612-.437-2.584q-.002-1.44.437-2.555c.295-.745.713-1.32 1.264-1.744s1.207-.632 2.014-.632q1.212 0 2.053.65c.56.444.988 1.028 1.273 1.773s.427 1.575.427 2.508c0 .934-.152 1.783-.437 2.537s-.712 1.348-1.273 1.791-1.264.66-2.052.66c-.789 0-1.454-.216-2.005-.64s-.969-1.01-1.264-1.764M121.411 28.298c-.731 0-1.406-.141-2.004-.424a3.37 3.37 0 0 1-1.445-1.245c-.361-.537-.541-1.197-.541-1.97 0-.595.114-1.104.342-1.51s.551-.744.969-1.008a5.3 5.3 0 0 1 1.482-.622c.57-.151 1.197-.274 1.882-.35l.818-.102h.002l.001-.001q.503-.065.908-.113c.475-.066.836-.16 1.083-.302.247-.132.37-.358.37-.66v-.283q0-1.232-.741-1.942c-.494-.472-1.197-.707-2.128-.707-.874 0-1.587.188-2.138.575s-.94.83-1.159 1.348l-1.34-.48q.414-.99 1.141-1.585a4.6 4.6 0 0 1 1.624-.858 6.3 6.3 0 0 1 1.825-.264c.465 0 .95.057 1.453.18.504.122.969.33 1.406.622s.78.707 1.055 1.235c.266.528.399 1.188.399 1.999v8.184h-1.406V26.11h-.086a3.9 3.9 0 0 1-.75 1.038 3.7 3.7 0 0 1-1.254.82c-.504.207-1.093.32-1.768.32zm.19-1.282c.751 0 1.397-.16 1.948-.49a3.45 3.45 0 0 0 1.273-1.311c.304-.547.447-1.15.447-1.81V21.66c-.105.104-.285.189-.523.264a7 7 0 0 1-.845.207c-.314.057-.637.114-.95.151q-.471.057-.855.113c-.685.085-1.274.217-1.758.396q-.727.27-1.112.736c-.256.311-.389.707-.389 1.197 0 .736.266 1.302.788 1.698.523.396 1.188.603 1.986.603z" clip-rule="evenodd"/><path fill="#b4b4b4" d="m137.278 18.973 1.292-.359h-.019c-.294-.876-.779-1.565-1.444-2.065s-1.558-.754-2.67-.754c-.817 0-1.548.151-2.185.434q-.957.425-1.501 1.188-.542.75-.542 1.754c0 .81.257 1.48.76 2.027.504.547 1.283.943 2.338 1.197l1.985.472c.665.16 1.169.405 1.492.735.333.33.494.736.494 1.226 0 .622-.275 1.15-.836 1.565s-1.311.623-2.242.623c-.836 0-1.501-.18-2.015-.547-.513-.368-.855-.905-1.026-1.622l-1.349.33c.219 1 .713 1.763 1.482 2.3.77.538 1.749.802 2.936.802.893 0 1.682-.15 2.357-.453.674-.301 1.206-.716 1.586-1.244a3.02 3.02 0 0 0 .57-1.81c0-.802-.247-1.471-.76-2.009-.503-.537-1.273-.924-2.29-1.169l-1.833-.443q-1.128-.283-1.673-.764c-.361-.32-.541-.745-.541-1.263 0-.613.266-1.113.789-1.5.522-.386 1.197-.584 2.023-.584.542 0 1.007.085 1.378.254.371.17.665.406.903.698a3.2 3.2 0 0 1 .541.98"/><path fill="#b4b4b4" fill-rule="evenodd" d="M146.751 28.28c-1.131 0-2.119-.265-2.945-.793-.827-.528-1.463-1.254-1.92-2.187-.456-.934-.674-2.009-.674-3.235s.228-2.29.674-3.234c.447-.943 1.074-1.687 1.872-2.225.798-.537 1.72-.801 2.775-.801q.983.002 1.909.358c.618.236 1.159.603 1.654 1.094.494.49.874 1.103 1.159 1.848s.427 1.612.427 2.63v.689h-9.043c.019.89.189 1.664.502 2.338a3.82 3.82 0 0 0 1.425 1.66c.617.396 1.349.584 2.195.584.57 0 1.083-.085 1.51-.264.437-.179.798-.415 1.102-.716.295-.302.523-.632.675-.99l1.34.433c-.181.51-.485.98-.903 1.405a4.8 4.8 0 0 1-1.568 1.037c-.627.255-1.339.387-2.156.387zm-3.61-8.958a4.9 4.9 0 0 0-.491 1.867h7.598c0-.774-.162-1.471-.475-2.094a3.7 3.7 0 0 0-1.302-1.47c-.551-.359-1.197-.538-1.929-.538-.77 0-1.444.207-2.033.613a4 4 0 0 0-1.368 1.622" clip-rule="evenodd"/></svg>
